src/static/svg/loading-bg.svg

<?xml version="1.0" encoding="UTF-8"?>
<svg width="1440px" height="864px" viewBox="0 0 1440 864" version="1.1" xmlns="http://www.w3.org/2000/svg" xmlns:xlink="http://www.w3.org/1999/xlink">
    <title>loading-bg</title>
    <defs>
        <rect id="path-1" x="0.000817247476" y="0" width="1440" height="864"></rect>
    </defs>
    <g id="R4" stroke="none" stroke-width="1" fill="none" fill-rule="evenodd">
        <g id="loading-bg">
            <mask id="mask-2" fill="white">
                <use xlink:href="#path-1"></use>
            </mask>
            <g id="Rectangle"></g>
            <path d="M-0.148843315,506.718591 C-18.2379915,141.795605 -18.1881046,-49.4099386 0.000817247476,-66.8980402 C52.6210776,-117.490839 579.938215,20.2462791 574.333192,-26.7579506 C568.728169,-73.7621802 1009.54325,-392.229537 1330.46023,-197.848976 C1547.2757,-66.5230729 1593.78922,476.093252 1470.00082,1430 L-0.148843315,1430 L-0.148843315,506.718591 Z" id="EVENT-BG" fill="#F2F0EB" mask="url(#mask-2)"></path>
            <path d="M1500.00082,-220 C1501.876,-170.800754 1503.3574,-125.78914 1504.44501,-84.9651558 L1504.74504,-73.4151095 C1504.79326,-71.5090934 1504.84058,-69.6125729 1504.88702,-67.7255483 L1505.1549,-56.5173495 L1505.40135,-45.537049 C1508.2302,84.8591674 1506.43002,166.029354 1500.00082,197.973512 C1491.83037,238.569212 1434.8818,246.438951 1372.0001,252.290085 L1365.79739,252.860179 L1350.18265,254.271067 C1316.77717,257.309607 1283.09195,260.762367 1255.31228,269.062399 C1168.50082,295 1117.00082,322.084943 1063.00082,407 C1030.60082,457.949034 1011.52082,510.837108 995.881542,560.041925 L994.328718,564.949921 L992.796636,569.832112 L991.283102,574.68725 L989.042774,581.916497 L984.642858,596.167079 L983.192091,600.851087 L981.745602,605.499921 L980.301195,610.11233 C979.819829,611.64359 979.338444,613.168572 978.856675,614.687066 L977.409845,619.222878 C973.788056,630.512714 970.12404,641.425933 966.263432,651.874686 C940.526046,721.533038 798.774066,992 440.000817,992 C203.210473,992 57.0945699,1069.62305 1.65310693,1224.86916 L0.000817247475,1229.59735 L-75,1102.54179 L-59.9741803,824.725239 C4.78293552,718.458846 117.188309,661.075015 277.24194,652.573747 L282.106634,652.331095 C546.513375,639.992686 617.848713,565.88749 705.606634,422.456409 L713.384756,409.747356 L718.445743,401.492177 C797.84705,272.134859 843.610476,206.356409 1010.20351,128.456409 C1145.03757,65.4071174 1298.39061,-57.9860349 1368.14219,-185.462119 L1500.00082,-220 Z" id="Shape" fill="#FEFEFE" opacity="0.500676" mask="url(#mask-2)"></path>
            <path d="M1.65392418,1224.86916 C57.0953871,1069.62305 203.211291,992 440.001634,992 C798.774883,992 940.526863,721.533038 966.264249,651.874686 C969.849099,642.172272 973.264439,632.069376 976.633862,621.636332 L977.410663,619.222878 L978.857492,614.687066 L979.579904,612.404485 L980.302013,610.11233 L981.74642,605.499921 L983.192909,600.851087 L984.643675,596.167079 L989.043592,581.916497 L991.283919,574.68725 L992.797453,569.832112 L994.329535,564.949921 L995.882359,560.041925 L997.299451,555.603698 L998.736723,551.146493 L1000.19578,546.67122 L1001.18137,543.678116 L1002.17783,540.677657 L1003.18562,537.670112 L1004.20524,534.655752 L1005.23714,531.634846 L1006.2818,528.607663 L1007.3397,525.574475 C1007.51715,525.068458 1007.69517,524.562202 1007.87377,524.055712 L1008.95241,521.01402 L1010.04548,517.966997 C1010.41229,516.950464 1010.78159,515.933087 1011.15344,514.914912 L1012.27678,511.858035 C1012.46531,511.348172 1012.6545,510.838119 1012.84436,510.327884 L1013.99164,507.264326 C1026.50933,474.052989 1041.94163,440.116872 1063.00163,407 C1117.00163,322.084943 1168.50163,295 1255.3131,269.062399 C1271.89128,264.109154 1290.57267,260.882214 1310.04267,258.4394 L1313.20668,258.049993 L1316.38326,257.673439 C1317.97449,257.488227 1319.56996,257.3075 1321.16899,257.130756 L1324.37157,256.782431 C1324.90606,256.725212 1325.44088,256.668399 1325.97602,256.611972 L1329.19047,256.277905 L1332.41126,255.952227 L1337.25163,255.477489 L1340.48285,255.168879 L1345.33302,254.715557 L1350.18347,254.271067 L1365.79821,252.860179 L1372.00092,252.290085 L1375.76636,251.936349 L1379.5155,251.576294 L1383.24629,251.208447 C1384.4866,251.084369 1385.72351,250.958746 1386.95667,250.831333 L1390.64459,250.443479 C1445.78455,244.537744 1492.64823,234.509642 1500.00163,197.973512 C1520.19762,97.6277566 1582.3595,636.955994 1554.00082,619.222878 C1498.27221,584.374936 1339.13134,671.791641 1337.25163,672.883156 C1255.3131,720.463402 1240.1259,715.023063 1172.00082,839.612088 C1130.99094,914.612088 1063.00082,1057.00228 865.408213,1107.27097 C744.60938,1138.00288 579.154443,1164.21224 455.000817,1264.32781 C397.95397,1310.32951 312.298268,1431.11786 282.500817,1482.66805 C127.805187,1750.29462 -107.99365,1531.90216 1.65392418,1224.86916 Z" id="Shape" fill="#FEFEFE" opacity="0.25" mask="url(#mask-2)"></path>
            <path d="M1330.06605,-197.723661 C1341.24083,-190.955053 1351.94483,-183.287122 1362.17803,-174.719867 L1362.18108,-174.705889 C1289.79865,-51.2510282 1141.47425,66.8012616 1010.5977,128 C835.236604,210 793.758738,278.568919 706.000817,422 C618.242896,565.431081 546.907558,639.536277 282.500817,651.874686 C106.229657,660.100291 -12.93701,726.909655 -74.9991828,852.302777 L-74.9991828,852.302777 L-74.9993655,703.205 L-68.5430261,506.843906 C-15.6701701,390.185542 76.7846245,331.85636 208.821358,331.85636 C406.876458,331.85636 459.005448,290.807632 513.766714,203.267569 C560.059221,129.265463 579.544032,20.3715935 573.939009,-26.6326361 C568.333986,-73.6368657 1009.14907,-392.104223 1330.06605,-197.723661 Z" id="Combined-Shape" fill="#FEFEFE" opacity="0.75" mask="url(#mask-2)"></path>
            <path d="M-0.00326265782,407.233324 L-0.00326265782,-394.103282 L16.7241167,-394.646557 L16.7241167,-394.646557 L33.1472276,-395.167656 L33.1472276,-395.167656 L49.2693325,-395.666582 L49.2693325,-395.666582 L65.0904316,-396.143333 C305.372906,-403.283508 439.500642,-402.603491 467.473641,-394.103282 C488.980921,-387.567824 509.491476,-300.692905 525.524152,-223.738776 L527.139022,-215.950649 L527.139022,-215.950649 L528.722205,-208.252015 L528.722205,-208.252015 L530.272887,-200.663972 L530.272887,-200.663972 L535.432591,-175.281275 L535.432591,-175.281275 L536.826954,-168.451938 C542.78967,-139.333902 547.710923,-116.598797 551.292801,-107.970946 C561.482112,-83.4274428 568.940233,-57.284145 574.196774,-29.9758053 L574.175312,-29.963965 C573.901261,-28.7375292 573.820719,-27.6246288 573.939009,-26.6326361 C579.544032,20.3715935 560.059221,129.265463 513.766714,203.267569 C459.553061,289.932231 407.919301,331.030737 214.719382,331.84404 L208.821358,331.85636 C122.162987,331.85636 52.5547802,356.982015 -0.00326265782,407.233324 Z" id="Path" fill="#FEFEFE" mask="url(#mask-2)"></path>
        </g>
    </g>
</svg>

<svg xmlns="http://www.w3.org/2000/svg" xmlns:xlink="http://www.w3.org/1999/xlink" viewBox="0 0 1440 864"><defs><path id="a" d="M.001 0h1440v864H.001z"/></defs><g fill="none" fill-rule="evenodd"><mask id="b" fill="#fff"><use xlink:href="#a"/></mask><path fill="#F2F0EB" d="M-.149 506.719C-18.238 141.796-18.189-49.41.001-66.898c52.62-50.593 579.937 87.144 574.332 40.14-5.605-47.004 435.21-365.472 756.127-171.091C1547.276-66.523 1593.79 476.093 1470 1430H-.148V506.719z" mask="url(#b)"/><path fill="#FEFEFE" d="M1500-220c1.876 49.2 3.357 94.21 4.445 135.035l.3 11.55c.048 1.906.096 3.802.142 5.69l.268 11.208.246 10.98c2.83 130.396 1.029 211.566-5.4 243.51-8.17 40.596-65.12 48.466-128 54.317l-6.204.57-15.614 1.411c-33.406 3.039-67.091 6.491-94.87 14.791C1168.5 295 1117 322.085 1063 407c-32.4 50.949-51.48 103.837-67.12 153.042l-1.552 4.908-1.532 4.882-1.514 4.855-2.24 7.23-4.4 14.25-1.45 4.684-1.447 4.649-1.445 4.612a1814.38 1814.38 0 0 1-1.444 4.575l-1.447 4.536c-3.622 11.29-7.286 22.203-11.147 32.652C940.526 721.533 798.774 992 440.001 992c-236.79 0-382.906 77.623-438.348 232.87l-1.652 4.727L-75 1102.542l15.026-277.817C4.783 718.46 117.188 661.075 277.242 652.574l4.865-.243c264.406-12.338 335.742-86.444 423.5-229.875l7.778-12.709 5.06-8.255c79.402-129.357 125.165-195.136 291.759-273.036 134.834-63.049 288.187-186.442 357.938-313.918L1500.001-220z" mask="url(#b)" opacity=".501"/><path fill="#FEFEFE" d="M1.654 1224.87C57.095 1069.622 203.21 992 440.002 992c358.773 0 500.525-270.467 526.262-340.125 3.585-9.703 7-19.806 10.37-30.239l.777-2.413 1.446-4.536.723-2.283.722-2.292 1.444-4.612 1.447-4.649 1.45-4.684 4.4-14.25 2.24-7.23 1.514-4.855 1.533-4.882 1.552-4.908 1.417-4.438 1.438-4.458 1.459-4.475.985-2.993.997-3 1.008-3.008 1.02-3.014 1.031-3.021 1.045-3.027 1.058-3.034.534-1.518 1.078-3.042 1.093-3.047c.367-1.017.737-2.034 1.108-3.052l1.124-3.057.567-1.53 1.148-3.064c12.517-33.211 27.95-67.147 49.01-100.264 54-84.915 105.5-112 192.311-137.938 16.578-4.953 35.26-8.18 54.73-10.623l3.164-.389 3.176-.377c1.591-.185 3.187-.365 4.786-.542l3.203-.349 1.604-.17 3.214-.334 3.221-.326 4.84-.475 3.232-.308 4.85-.453 4.85-.445 15.615-1.41 6.203-.57 3.765-.355 3.75-.36 3.73-.368c1.24-.124 2.478-.25 3.71-.377l3.689-.388c55.14-5.905 102.003-15.933 109.357-52.47 20.196-100.345 82.358 438.983 53.999 421.25-55.729-34.848-214.87 52.569-216.75 53.66-81.938 47.58-97.125 42.14-165.25 166.73-41.01 75-109 217.39-306.593 267.658-120.799 30.732-286.254 56.941-410.407 157.057-57.047 46.002-142.703 166.79-172.5 218.34-154.696 267.627-390.495 49.234-280.847-257.799z" mask="url(#b)" opacity=".25"/><path fill="#FEFEFE" d="M1330.066-197.724c11.175 6.769 21.879 14.437 32.112 23.004l.003.014C1289.8-51.25 1141.474 66.801 1010.598 128 835.237 210 793.758 278.569 706 422c-87.758 143.431-159.093 217.536-423.5 229.875C106.23 660.1-12.937 726.91-75 852.303V703.205l6.456-196.361C-15.67 390.186 76.785 331.856 208.821 331.856c198.055 0 250.184-41.048 304.946-128.588 46.292-74.003 65.777-182.896 60.172-229.9-5.605-47.005 435.21-365.472 756.127-171.092z" mask="url(#b)" opacity=".75"/><path fill="#FEFEFE" d="M-.003 407.233v-801.336l16.727-.544 16.423-.52 16.122-.5 15.821-.476c240.283-7.14 374.41-6.46 402.384 2.04 21.507 6.535 42.017 93.41 58.05 170.364l1.615 7.788 1.583 7.699 1.55 7.588 5.16 25.383 1.395 6.83c5.963 29.117 10.884 51.852 14.466 60.48 10.19 24.544 17.647 50.687 22.904 77.995l-.022.012c-.274 1.226-.354 2.34-.236 3.331 5.605 47.005-13.88 155.898-60.172 229.9-54.214 86.665-105.848 127.764-299.048 128.577l-5.898.012c-86.658 0-156.266 25.126-208.824 75.377z" mask="url(#b)"/></g></svg>
